svg/fluentui-system-icons/ic_fluent_contact_card_ribbon_32_filled.svg

<svg width="32" height="32" viewBox="0 0 32 32" fill="none" xmlns="http://www.w3.org/2000/svg">
<path d="M5.25 4C3.45507 4 2 5.45508 2 7.25V24.75C2 26.5449 3.45507 28 5.25 28H19.5V24.1076C18.8652 23.054 18.5 21.8197 18.5 20.5C18.5 19.9851 18.5556 19.4832 18.6611 19H18C17.4477 19 17 18.5523 17 18C17 17.4477 17.4477 17 18 17H19.4365C20.2171 15.6506 21.4352 14.5859 22.8969 14H18C17.4477 14 17 13.5523 17 13C17 12.4477 17.4477 12 18 12H25.0004C25.5526 12 26.0004 12.4477 26.0004 13C26.0004 13.1859 25.9496 13.36 25.8612 13.5092C27.4337 13.5891 28.8693 14.1879 30 15.1379V7.25C30 5.45508 28.5449 4 26.75 4H5.25ZM13 13C13 14.1046 12.1046 15 11 15C9.89543 15 9 14.1046 9 13C9 11.8954 9.89543 11 11 11C12.1046 11 13 11.8954 13 13ZM7 17.5C7 16.6716 7.67157 16 8.5 16H13.5C14.3284 16 15 16.6716 15 17.5C15 17.5 15 21 11 21C7 21 7 17.5 7 17.5ZM29.8769 25.639C29.4589 25.9954 28.9968 26.3017 28.5 26.5486C27.5994 26.9962 26.5847 27.2485 25.5113 27.2502L25.5093 27.2502C25.5062 27.2503 25.5031 27.2503 25.5 27.2503C25.4969 27.2503 25.4938 27.2503 25.4907 27.2502L25.4887 27.2502C24.4153 27.2485 23.4006 26.9962 22.5 26.5486C21.9539 26.2772 21.4498 25.9341 21 25.5315V30.0497C21 30.791 21.8111 31.2466 22.4442 30.861L25.5 28.9997L28.5558 30.861C29.1889 31.2466 30 30.791 30 30.0497V25.5315C29.9594 25.5678 29.9184 25.6037 29.8769 25.639ZM29.1662 24.5999C29.4783 24.3207 29.7583 24.0063 30 23.6631C30.63 22.7684 31 21.6774 31 20.5C31 19.3226 30.63 18.2316 30 17.3369C29.0046 15.9234 27.3602 15 25.5 15C23.7921 15 22.266 15.7785 21.2572 17C20.779 17.579 20.417 18.2576 20.207 19C20.0722 19.4768 20 19.98 20 20.5C20 21.5298 20.283 22.4935 20.7755 23.3175C21.0621 23.7971 21.4197 24.2294 21.8338 24.5999C22.8068 25.4706 24.0916 26 25.5 26C26.9084 26 28.1932 25.4706 29.1662 24.5999Z" fill="#212121"/>
</svg>

<svg xmlns="http://www.w3.org/2000/svg" width="32" height="32"><path d="M5.25 4A3.25 3.25 0 0 0 2 7.25v17.5A3.25 3.25 0 0 0 5.25 28H19.5v-3.892A7.026 7.026 0 0 1 18.661 19H18a1 1 0 1 1 0-2h1.436a7.026 7.026 0 0 1 3.46-3H18a1 1 0 1 1 0-2h7a1 1 0 0 1 .861 1.51A6.969 6.969 0 0 1 30 15.137V7.25A3.25 3.25 0 0 0 26.75 4H5.25ZM13 13a2 2 0 1 1-4 0 2 2 0 0 1 4 0Zm-6 4.5A1.5 1.5 0 0 1 8.5 16h5a1.5 1.5 0 0 1 1.5 1.5s0 3.5-4 3.5-4-3.5-4-3.5Zm22.877 8.139a6.72 6.72 0 0 1-4.366 1.611h-.022A6.72 6.72 0 0 1 21 25.532v4.518a.95.95 0 0 0 1.444.811L25.5 29l3.056 1.861A.95.95 0 0 0 30 30.05v-4.518l-.123.107Zm-.71-1.04A5.475 5.475 0 0 0 31 20.5a5.484 5.484 0 0 0-1.001-3.162A5.493 5.493 0 0 0 25.5 15a5.489 5.489 0 0 0-4.243 2A5.486 5.486 0 0 0 20 20.5a5.474 5.474 0 0 0 1.834 4.1A5.48 5.48 0 0 0 25.5 26a5.48 5.48 0 0 0 3.666-1.4Z"/></svg>
